X: 39968
T: Three Around Three
R: barndance
M: 4/4
K: Gmajor
dd|:d2 BA G2 G2|A>cBA G2 D2|EDEF G2 AB|c2 B2 B2 A2|
d2 BA G2 G2|ABcA G2 D2|EDEF G3 B|1 A2 F2 G2 zB:|2 A2 F2 G2 d2||
|:d2 ef gfed|e2 e2 egfe|d2 B2 B2 GG|FGAB A4|
d2 ef gfed|e2 e2 e2 d2|ef g2 fgaf|1 g4- g2 dd:|2 g4- g2 z2||

